X: 54
T:Easter Sunday
M:4/4
L:1/8
C:Paddy O'Brien
S:Dan Cummins and Bev Buchannan
R:reel
K:Am
AG|EAAB cBcA|BG~G2 BcdB|AEAB cBce|dBGA BA~A2|
EAAB cBce|dB~B2 gedg|eaaf ~g2ab|gedB A2 :|
Bd|eaag edBA|BG~G2 BcdB|ABcd eaaf| ~g2fa gedg|
ea~a2 bg~g2|aged BedB|AGEF GABd|gedB A2 :|

